www/assets/icons/picture_in_picture.svg

<svg width="24" height="24" viewBox="0 0 24 24" xmlns="http://www.w3.org/2000/svg" fill='currentColor'><path d="M19 7.00977H11V13.0098H19V7.00977ZM21 3.00977H3C1.9 3.00977 1 3.90977 1 5.00977V19.0098C1 20.1098 1.9 20.9898 3 20.9898H21C22.1 20.9898 23 20.1098 23 19.0098V5.00977C23 3.90977 22.1 3.00977 21 3.00977ZM21 19.0198H3V4.98977H21V19.0198Z"/></svg>

<svg xmlns="http://www.w3.org/2000/svg" width="24" height="24" viewBox="0 0 24 24" fill='currentColor'><path d="M19 7.01h-8v6h8zm2-4H3c-1.1 0-2 .9-2 2v14c0 1.1.9 1.98 2 1.98h18c1.1 0 2-.88 2-1.98v-14c0-1.1-.9-2-2-2m0 16.01H3V4.99h18z"/></svg>
